X:1
T:Title
%%score { ( 1 3 ) | ( 2 4 ) }
L:1/8
Q:1/4=106
M:4/4
K:Ab
V:1 treble nm="Grand Piano"
V:3 treble 
V:2 bass 
V:4 bass 
V:1
 [CEA]2 [CEA]>[CEA] [CEA]2 [CEAc]2 | [EGBe]3 [EGBd] [CEAc]2 [CEA]2 | %2
w: Lester~Price * * * *||
 [A,DF]2 [DFBd]>[DFBd] [EFc]2 [DFB]2 | [CEA]3 [B,EG] [B,EG]2 [G,DE]2 | %4
w: ||
 [CEA]2 [CEA]>[CEA] [CEA]2 [CEAc]2 | [EGBe]3 [EGBd] [CEAc]2 [A,EA]2 | %6
w: ||
 z2 [FBd]>[K:bass][K:treble]d z4 | [A,CEA]6[K:bass] z2 | B2 B>B B2 c2 | e3 d B4 | C2 C>C C2 D2 | %11
w: |||||
 F3 E C2 A2 | [DAd]3 [DAd] [CAc]2 z2 | [FAdf]3 [FAdf] [EAe]2 [DFBd]2 | %14
w: |||
 [CEAc]3 [CEAc] [DEAB]2 [DEGB]2 | [CEA]6 z2 |] %16
w: ||
V:2
 [A,,E,A,]2 [A,,E,A,]>[A,,E,A,] [A,,E,A,]2 [A,,F,A,]2 | [E,G,B,D]3 [E,G,B,D] [A,,F,A,]2 [C,,C,]2 | %2
 [D,,D,]2 [B,,,B,,]>[B,,,B,,] [C,,C,]2 [D,,D,]2 | [E,,E,]3 [E,,E,] [E,,E,]2 [E,,E,]2 | %4
 [A,,E,A,]2 [A,,E,A,]>[B,,E,A,] [A,,E,A,]2 [A,,E,A,]2 | [E,G,B,D]3 [E,G,B,D] [A,,E,A,]2 [C,,C,]2 | %6
 z2 z z/[K:treble] [DFB]/[K:bass] z4 | A,,2 A,,,>A,,, A,,,2 z2 | G2 G>G G2 A2 | c3 B G4 | %10
 A,2 A,>A, A,2 B,2 | D3 C A,2 A,2 | [F,,F,]3 [F,,F,] [E,,E,]2 [A,A]2 | %13
 [D,,D,]3 [D,,D,] [C,,C,]2 [D,,D,]2 | [E,,E,]3 [E,,E,] [E,,E,]2 [E,,E,]2 | [A,,E,A,]6 z2 |] %16
V:3
 x8 | x8 | x8 | x8 | x8 | x8 | [B,FB]2 (3D-[C,D][K:bass]D,[K:treble] [CEAc]2 [DEGB]2 | %7
 z2[K:bass] A,,>A,, A,,2 z2 | x8 | x8 | x8 | x8 | x8 | x8 | x8 | x8 |] %16
V:4
 x8 | x8 | x8 | x8 | x8 | x8 | [D,,D,]2 (3[B,,,B,,]C,,D,,[K:treble][K:bass] [E,,E,]2 [E,,E,]2 | %7
 x8 | x8 | x8 | x8 | x8 | x8 | x8 | x8 | x8 |] %16

